brandFactory_export/3.Masa/Portapapeles_3Masa.svg

<?xml version="1.0" encoding="UTF-8"?>
<svg width="24px" height="24px" viewBox="0 0 24 24" version="1.1" xmlns="http://www.w3.org/2000/svg" xmlns:xlink="http://www.w3.org/1999/xlink">
    <title>3.Masa/Portapapeles_3Masa</title>
    <g id="Symbols" stroke="none" stroke-width="1" fill="none" fill-rule="evenodd">
        <g id="3.Masa/Portapapeles_3Masa" fill="#5CB615" fill-rule="nonzero">
            <path d="M14.1260504,2.61512605 C14.0319328,2.31596639 13.7462185,1.41176471 11.887395,1.41176471 C9.88067227,1.41176471 9.57815126,2.41680672 9.53781513,3.29411765 L9.53109244,3.71092437 C9.54453782,4.0302521 9.55798319,4.49411765 11.887395,4.49411765 C14.2168067,4.49411765 14.2302521,4.03361345 14.2403361,3.76134454 L14.2403361,3.37478992 C14.2369748,3.11596639 14.1966387,2.8605042 14.1260504,2.61512605 Z M18.8218487,1.71764706 C19.8470588,1.71764706 20.7445378,2.45042017 20.7445378,3.28403361 L20.7445378,22.0571429 C20.7445378,22.907563 19.8638655,23.6235294 18.8218487,23.6235294 L4.94957983,23.6235294 C3.90756303,23.6235294 3.02689076,22.9042017 3.02689076,22.0571429 L3.02689076,3.28067227 C3.02689076,2.44705882 3.92773109,1.71428571 4.94957983,1.71428571 L8.49579832,1.71428571 C9.0605042,0.618487395 10.2268908,0 11.887395,0 C13.9109244,0 14.8487395,0.850420168 15.2823529,1.71764706 L18.8218487,1.71764706 L18.8218487,1.71764706 Z M11.0504202,3.75798319 C10.6840336,3.75798319 10.3882353,3.46218487 10.3882353,3.09915966 C10.3882353,2.73613445 10.6840336,2.44033613 11.0504202,2.44033613 L12.7210084,2.44033613 C13.087395,2.44033613 13.3865546,2.73613445 13.3865546,3.09915966 C13.3865546,3.46218487 13.087395,3.75798319 12.7210084,3.75798319 L11.0504202,3.75798319 L11.0504202,3.75798319 Z" id="Portapapeles_3Masa"></path>
        </g>
    </g>
</svg>

<svg width="24" height="24" viewBox="0 0 24 24" xmlns="http://www.w3.org/2000/svg"><path d="M14.126 2.615c-.094-.299-.38-1.203-2.239-1.203-2.006 0-2.309 1.005-2.35 1.882l-.006.417c.014.32.027.783 2.356.783 2.33 0 2.343-.46 2.353-.733v-.386a2.885 2.885 0 00-.114-.76zm4.696-.897c1.025 0 1.923.732 1.923 1.566v18.773c0 .85-.881 1.567-1.923 1.567H4.95c-1.042 0-1.923-.72-1.923-1.567V3.281c0-.834.9-1.567 1.923-1.567h3.546C9.06.618 10.226 0 11.887 0c2.024 0 2.962.85 3.395 1.718h3.54zm-7.772 2.04a.66.66 0 01-.662-.659.66.66 0 01.662-.659h1.671c.366 0 .666.296.666.66 0 .362-.3.658-.666.658h-1.67z" fill="#5CB615" fill-rule="nonzero"/></svg>
